app/assets/img/ic-prison-jail-related-services.svg

<svg height="250" viewBox="0 0 250 250" width="250" xmlns="http://www.w3.org/2000/svg"><path d="m214.357142 229.970553v-210.3718813c0-2.5309477-2.052059-4.583007-4.583007-4.583007-2.530947 0-4.583007 2.0520593-4.583007 4.583007v191.4087943c-9.622524-10.969678-23.276718-16.284444-24.296314-16.667107-10.72408-3.207882-19.29456-6.736886-25.435633-10.494146-2.199754-1.375126-3.987194-2.704377-5.499664-4.125378-.916658-.870503-1.558066-2.383253-1.558066-3.665511v-12.695018c6.461917-5.866384 8.570201-12.970268 9.166014-18.149648.137345-1.099877.183219-2.06213.229094-2.978507 5.407915-2.429128 8.661671-5.866383 9.624203-10.265891 1.283376-5.958132-2.199754-11.457517-4.628882-14.436024 9.016362-27.298878 2.818785-39.8618667-5.17854-45.6991583v-52.2480707c0-2.5309477-2.052059-4.583007-4.583007-4.583007s-4.583007 2.0520593-4.583007 4.583007v48.2681489c-1.07694-.2181851-2.093459-.3804253-2.933191-.4598672-3.345786-3.1620062-12.23683-10.3576407-24.610725-10.3576407-6.004008 0-12.007736 1.6962497-17.87384 5.133505-.761689.453154-1.427434 1.0226728-2.155557 1.5183447v-44.1024907c0-2.5309477-2.0520591-4.583007-4.5830068-4.583007-2.5309478 0-4.583007 2.0520593-4.583007 4.583007v52.4684927c-7.2711601 9.0071303-10.542818 20.7656317-8.8896463 32.6002183.6416879 4.445382 1.7874396 8.75314 3.7125042 13.749021-1.4665957 3.207881-3.5748797 9.441262-1.5583456 15.398276.8249078 2.520878 2.6582224 5.728759 6.7827609 8.157887.1376245 5.407635 1.3748462 16.361649 9.0286686 21.906908v12.465645c0 1.329251-.504063 2.566752-1.3748457 3.39138-1.5583457 1.421001-3.3457858 2.750252-5.4996648 4.079503-6.1872271 3.75726-14.7574277 7.332139-25.7106022 10.63177-.8484045.31441-14.4256745 5.587778-24.0328143 16.549623v-191.3830593c0-2.5309477-2.0520593-4.583007-4.583007-4.583007s-4.583007 2.0520593-4.583007 4.583007v210.8183213c0 .292032.1141274.546022.1661565.82239.0386022.208116.0565043.409517.1230789.6098.1510513.453154.3829428.847006.6593109 1.224074.07133.097344.0892321.221542.1692335.31441.0240562.027973.0618193.038043.0864351.064897.4030832.448678.8800134.814558 1.4305114 1.07638.0226574.011189.0388817.031329.0615392.041399.5784704.26406 1.2092493.429657 1.8867419.429657.0137064 0 .025175-.007832.0388818-.007832h170.1133648c.013706 0 .025175.007832.038881.007832.013707 0 .025176-.007832.038882-.007832h.046434c2.520598 0 4.583007-2.06213 4.583007-4.583007 0-.158884-.071609-.286438-.085316-.438608z"/></svg>

<svg xmlns="http://www.w3.org/2000/svg" width="250" height="250" viewBox="0 0 250 250">
  <path fill="#000000" d="M214.357142,229.970553 L214.357142,19.5986717 C214.357142,17.067724 212.305083,15.0156647 209.774135,15.0156647 C207.243188,15.0156647 205.191128,17.067724 205.191128,19.5986717 L205.191128,211.007466 C195.568604,200.037788 181.91441,194.723022 180.894814,194.340359 C170.170734,191.132477 161.600254,187.603473 155.459181,183.846213 C153.259427,182.471087 151.471987,181.141836 149.959517,179.720835 C149.042859,178.850332 148.401451,177.337582 148.401451,176.055324 L148.401451,163.360306 C154.863368,157.493922 156.971652,150.390038 157.567465,145.210658 C157.70481,144.110781 157.750684,143.148528 157.796559,142.232151 C163.204474,139.803023 166.45823,136.365768 167.420762,131.96626 C168.704138,126.008128 165.221008,120.508743 162.79188,117.530236 C171.808242,90.231358 165.610665,77.6683693 157.61334,71.8310777 L157.61334,19.583007 C157.61334,17.0520593 155.561281,15 153.030333,15 C150.499385,15 148.447326,17.0520593 148.447326,19.583007 L148.447326,67.8511559 C147.370386,67.6329708 146.353867,67.4707306 145.514135,67.3912887 C142.168349,64.2292825 133.277305,57.033648 120.90341,57.033648 C114.899402,57.033648 108.895674,58.7298977 103.02957,62.167153 C102.267881,62.620307 101.602136,63.1898258 100.874013,63.6854977 L100.874013,19.583007 C100.874013,17.0520593 98.8219539,15 96.2910062,15 C93.7600584,15 91.7079992,17.0520593 91.7079992,19.583007 L91.7079992,72.0514997 C84.4368391,81.05863 81.1651812,92.8171314 82.8183529,104.651718 C83.4600408,109.0971 84.6057925,113.404858 86.5308571,118.400739 C85.0642614,121.60862 82.9559774,127.842001 84.9725115,133.799015 C85.7974193,136.319893 87.6307339,139.527774 91.7552724,141.956902 C91.8928969,147.364537 93.1301186,158.318551 100.783941,163.86381 L100.783941,176.329455 C100.783941,177.658706 100.279878,178.896207 99.4090953,179.720835 C97.8507496,181.141836 96.0633095,182.471087 93.9094305,183.800338 C87.7222034,187.557598 79.1520028,191.132477 68.1988283,194.432108 C67.3504238,194.746518 53.7731538,200.019886 44.166014,210.981731 L44.166014,19.5986717 C44.166014,17.067724 42.1139547,15.0156647 39.583007,15.0156647 C37.0520593,15.0156647 35,17.067724 35,19.5986717 L35,230.416993 C35,230.709025 35.1141274,230.963015 35.1661565,231.239383 C35.2047587,231.447499 35.2226608,231.6489 35.2892354,231.849183 C35.4402867,232.302337 35.6721782,232.696189 35.9485463,233.073257 C36.0198763,233.170601 36.0377784,233.294799 36.1177798,233.387667 C36.141836,233.41564 36.1795991,233.42571 36.2042149,233.452564 C36.6072981,233.901242 37.0842283,234.267122 37.6347263,234.528944 C37.6573837,234.540133 37.673608,234.560273 37.6962655,234.570343 C38.2747359,234.834403 38.9055148,235 39.5830074,235 C39.5967138,235 39.6081824,234.992168 39.6218892,234.992168 L209.735254,234.992168 C209.74896,234.992168 209.760429,235 209.774135,235 C209.787842,235 209.799311,234.992168 209.813017,234.992168 C209.824766,234.992168 209.836234,234.992168 209.859451,234.992168 C212.380049,234.992168 214.442458,232.930038 214.442458,230.409161 C214.442458,230.250277 214.370849,230.122723 214.357142,229.970553 Z"/>
</svg>
